X: 5
T:I Have a Bonnet Trimmed with Blue
M:2/4
L:1/16
R:Hornpipe
K:D
f|"D"A2 B/>A/ F2A2|d2A2 f4|"A7"f2 e>f g2e2|"D"d>c d>e f2d2|"D"A2 B>A F2A
2|d2A2 f4|
"A7"f2 e>f g2c2|!"A7"e2d2 "D"d4:||:"A"e2 f>e c2e2|a2c2 e4|"A"e2 f>e "E7"
d2B2|"D"f2e2 "A"c4|
"A"e2 f>e c2e2|!a2c2 e4|"A"e2 f>e "E7"d2B2|"E7"B2A2 "A"A4:||:"D"A2 B>A F
2A2|
d2A2 f4|"A7"f2 e>f g2e2|"D"d>c d>e f2d2|!"D"A2 B>A F2A2|d2A2 f4|"A7"f2 e
>f g2c2|
"A7"e2d2 "D"d4:||:"G"G2B2 B2d2|d2 e>d B4|"G"d2 e>d "D7"c2A2|!"D7"e2d2 "G
"B4|
"G"G2B2 B2d2|d2 e>d B4|"G"d e>d "D7"c2F2|"G"A2G2 G4:||:"C"g2e2 e2g2|
"G"d2 e>d B4|!"G"d2 e>d "D7"c2A2|"D7"e2d2 "G"B4|"C"g2e2 e2g2|"G"d2 e>d B
4|
"G"d2 e>d "D7"c2F2|"G"A2G2 G4:||"D"A2 B/>A/ F2A2|!d2A2 f4|"A7"f2 e>f g2
e2|
"D"d>c d>e f2d2|"D"A2 B>A F2A2|d2A2 f4|"A7"f2 e>f g2c2|"A7"e2d2 "D"d4:||
